X:Farewell
T:Dirge
M:C
L:1/8
Q:60
K:Emaj
|^A/8 B3|^A/8 B3|AEF|E/8G2z|
Q:100
|G2B A2c|BAG FE^E|^F2=G ^G2E|ABc F2z|
|G2E A2c|FAG FEe|d2 c B2d|cB^A G2z|
|A2F A2F|AFG GFE|e2c d2=c|cde f2z|
|f=ge =dB=G|B=cA =GE=C|B,2E =G2F|EA=G F3z|
Q:80
|B2c BGE|GF2 ~E/8E4z2| 
Q:100
|^A/8 B3|^A/8 B4|A2E2F2|E/8G3z|
